X:1
T:G Major Daniel Read, 1804 (Revised 1807)
T:Isaac Watts, 1719 (Psalm 104)  88. 88. 88.
T:Monticello No copyright.  Transcribed from The Columbian Harmonist, 1807.
%%score [ 1 2 3 4 ]
L:1/8
M:4/4
K:G
V:1 treble nm="Tr." snm="Tr."
V:2 treble nm="C." snm="C."
V:3 treble-8 nm="T." snm="T."
V:4 bass nm="B." snm="B."
V:1
 B4 | (d3 c B2) B2 | (BAGA B2) c2 | d4 d4 | B6 B2 | (B2 d4) B2 | (c2 e4) d2 | (d3 c B2) A2 | %8
 A6 B2 | (G3 F G2) A2 | (B>c Bc d2) G2 | (A3 B cB) AG | (G2 F6) | G4 A2 A2 | (B2 AB c2 Bc | %15
 d3 c B2) A2 | G4 A4 | B8 |] %18
V:2
 G4 | G6 G2 | G6 E2 | D4 [DF]4 | [DG]6 G2 | G6 G2 | E6 G2 | G6 E2 | F6 G2 | G6 E2 | D6 E2 | %11
w: 4.~The|world's foun-|da- tions|by His|hand Are|poised, and|shall for-|ev- er|stand; He|binds the|o- cean|
 E6 ^C2 | D8 | D4 D2 D2 | (D4 G2 c2 | B2 A4) A2 | G4 F4 | G8 |] %18
w: in His|chain,|Lest it should|drown~~ * *|* * the|earth a-|gain.|
V:3
 G4 | (B3 c d2) d2 | d6 c2 | (B2 G2) A4 | G6 B2 | (d2 B4) d2 | (c2 A4) G2 | (B2 d4) ^c2 | d6 B2 | %9
 (c3 d ed) c2 | (B2 A4) G2 | (F3 G AG) FE | D8 | B4 A2 c2 | (B2 d2 c2 g2 | f3 e d2) c2 | B4 A4 | %17
 G8 |] %18
V:4
 G,4 | G,6 G,2 | G,6 C,2 | D,4 D,4 | G,,6 G,2 | G,6 G,2 | (A,2 C4) B,2 | (B,2 G,4) A,2 | D,6 G,2 | %9
 E,6 C,2 | D,6 G,2 | A,6 A,,2 | D,8 | G,4 F,2 A,2 | (G,2 D,2 E,2 C,2 | D,6) F,2 | G,4 D,4 | G,,8 |] %18

